icons/phone.svg

<svg xmlns="http://www.w3.org/2000/svg" width="24" height="24"><path d="M22.176 17.516l-2.453-2.453c-1.06-1.062-2.915-1.064-3.98 0l-.495.496a54.3 54.3 0 0 1-6.806-6.81l.497-.5a2.817 2.817 0 0 0 0-3.98L6.48 1.82C5.42.76 3.57.76 2.5 1.825L1.166 3.17A3.98 3.98 0 0 0 .66 8.164 54.187 54.187 0 0 0 15.835 23.34c.652.432 1.41.66 2.19.66a3.942 3.942 0 0 0 2.805-1.16l1.346-1.347c.53-.53.824-1.237.824-1.99a2.79 2.79 0 0 0-.824-1.987zm-.707 3.27l-1.35 1.346c-.97.972-2.59 1.134-3.74.374A53.187 53.187 0 0 1 1.49 7.613a2.98 2.98 0 0 1 .377-3.736L3.21 2.53a1.814 1.814 0 0 1 2.565 0L8.23 4.985a1.815 1.815 0 0 1 0 2.563l-.817.818a.5.5 0 0 0-.033.67 55.01 55.01 0 0 0 7.585 7.584.5.5 0 0 0 .67-.033l.817-.817c.687-.686 1.88-.686 2.565 0l2.453 2.453a1.806 1.806 0 0 1 0 2.563z"/></svg>

<?xml version="1.0" encoding="utf-8"?>
<!-- Generator: Adobe Illustrator 16.0.0, SVG Export Plug-In . SVG Version: 6.00 Build 0)  -->
<!DOCTYPE svg PUBLIC "-//W3C//DTD SVG 1.1//EN" "http://www.w3.org/Graphics/SVG/1.1/DTD/svg11.dtd">
<svg version="1.1" id="Outline_Icons" xmlns="http://www.w3.org/2000/svg" xmlns:xlink="http://www.w3.org/1999/xlink" x="0px"
	 y="0px" width="24px" height="24px" viewBox="0 0 24 24" enable-background="new 0 0 24 24" xml:space="preserve">
<path d="M22.176,17.516l-2.453-2.453c-1.061-1.062-2.915-1.064-3.979,0l-0.496,0.496c-2.434-2.031-4.772-4.37-6.806-6.807
	l0.497-0.496c1.096-1.098,1.096-2.882,0-3.978L6.485,1.824c-1.062-1.062-2.916-1.062-3.979,0L1.162,3.17
	C-0.165,4.497-0.376,6.598,0.66,8.164c3.952,5.976,9.2,11.224,15.175,15.176c0.652,0.432,1.41,0.659,2.191,0.659
	c1.061,0,2.056-0.412,2.804-1.16l1.346-1.346C22.707,20.962,23,20.256,23,19.504C23,18.753,22.707,18.046,22.176,17.516z
	 M21.469,20.786l-1.346,1.346c-0.971,0.972-2.584,1.134-3.736,0.374C10.523,18.627,5.373,13.478,1.494,7.613
	C0.719,6.44,0.877,4.869,1.869,3.877l1.345-1.346C3.556,2.188,4.012,2,4.496,2s0.94,0.188,1.282,0.531l2.454,2.454
	c0.707,0.706,0.706,1.856,0,2.563L7.414,8.366c-0.182,0.182-0.196,0.472-0.033,0.67c2.235,2.729,4.857,5.352,7.583,7.584
	c0.199,0.163,0.488,0.147,0.67-0.033l0.817-0.817c0.686-0.686,1.88-0.686,2.564,0l2.453,2.453C21.811,18.564,22,19.02,22,19.504
	S21.811,20.443,21.469,20.786z"/>
</svg>
